X:1
T:Title
%%score { 1 | ( 2 3 ) }
L:1/8
Q:1/4=100
M:4/4
K:F
V:1 treble nm="Grand Piano"
V:2 bass 
V:3 bass 
V:1
 A3 A _A=A B>A | _A4 =A4 | [EG]3 [EG] [_E^F][=EG] [EA]>[EG] | F4 C4 | A3 A _A=A B>A | _A4 =A4 | %6
w: F.~S.~Rockwell * * * * *||||||
 G3 G GG A>=B | [Ec]6 z2 | [EB]3 [GB] [FB][EB] [EA]>[EG] | [EG]4 [DF]4 | %10
w: ||||
 [Fd]3 [Fd] [Fc][F=B] [E_B]>G | c6 z2 | f3 f e2 e2 | d2 d2 c2 [CF]2 | %14
w: ||||
 [DFB]3 [^CFB] [=CEG]2 [A,EA]2 | [A,DF]2 [B,EG]2 [A,F]4 |] %16
w: ||
V:2
 [F,CF]3 [F,CF] [F,=B,F][F,CF] [F,DF]>[F,CF] | [F,=B,F]4 [F,CF]4 | %2
 [C,B,]3 [C,B,] [C,A,][C,B,] [C,C]>[C,B,] | C4 z4 | [F,CF]3 [F,CF] [F,=B,F][F,CF] [F,DF]>[F,CF] | %5
 [F,=B,F]4 [F,CF]4 | [G,CE]3 [G,CE] [G,=B,F][G,B,F] [G,CF]>[G,DF] | [C,C]6 z2 | %8
 [C,G,]3 [C,E,] [C,F,][C,G,] [C,A,]>[C,B,] | [D,B,]4 [D,A,]4 | %10
 [B,,B,]3 [B,,B,] [C,A,][C,_A,] [C,G,]>[K:treble][B,CE] | [A,CF]6 z2 | %12
 [A,CF]3 [A,CF] [A,^CG]2 [A,CG]2 | [B,DF]2 [_A,=B,F]2 [=A,CF]2[K:bass] A,,2 | B,,3 G,, C,2 ^C,2 | %15
 D,2 C,2 F,4 |] %16
V:3
 x8 | x8 | x8 | [F,A,]8 | x8 | x8 | x8 | x8 | x8 | x8 | x15/2[K:treble] x/ | x8 | x8 | %13
 x6[K:bass] x2 | x8 | x8 |] %16

